assets/Man swimming/Medium/Flat/man_swimming_flat_medium.svg

<svg width="32" height="32" viewBox="0 0 32 32" fill="none" xmlns="http://www.w3.org/2000/svg">
<path d="M2 13.99C3.11 12.88 4.89 12.88 6 13.99C7.11 15.1 8.89 15.1 10 13.99C11.11 12.88 12.89 12.88 14 13.99C15.11 15.1 16.89 15.1 18 13.99C19.11 12.88 20.89 12.88 22 13.99C23.11 15.1 24.89 15.1 26 13.99C27.11 12.88 28.89 12.88 30 13.99V22.94H2V13.99Z" fill="#26C9FC"/>
<path d="M13.5299 24.08H29.8999C29.8999 21.48 28.6799 19.16 26.7899 17.67L22.5999 8.45C21.3699 5.74 18.6699 4 15.6999 4H9.89993H8.77993C7.97993 4.05 7.32993 4.34 6.75993 4.91L5.11992 6.53C4.82992 6.82 4.80992 7.29 5.06992 7.6L4.92992 7.73C4.61992 8.04 4.59992 8.54 4.89992 8.86C5.19993 9.18 5.70992 9.18 6.01992 8.87H6.02993C6.06993 8.94 6.10992 9.01 6.16992 9.07C6.47992 9.38 6.97992 9.38 7.28992 9.08L7.83993 8.54C8.18993 8.19 8.66993 7.99 9.16993 8H9.88993H15.2199C16.9199 8 18.4599 8.99 19.1599 10.54L21.5999 15.9C17.1299 15.96 13.5299 19.59 13.5299 24.08Z" fill="#B87A66"/>
<path d="M2 20.98C3.11 19.87 4.89 19.87 6 20.98C7.11 22.09 8.89 22.09 10 20.98C11.11 19.87 12.89 19.87 14 20.98C15.11 22.09 16.89 22.09 18 20.98C19.11 19.87 20.89 19.87 22 20.98C23.11 22.09 24.89 22.09 26 20.98C27.11 19.87 28.89 19.87 30 20.98V29.93H2V20.98Z" fill="#0084CE"/>
<path d="M19.0101 12.8901C19.0101 13.6246 18.4146 14.2201 17.6801 14.2201C16.9456 14.2201 16.3501 13.6246 16.3501 12.8901C16.3501 12.1555 16.9456 11.5601 17.6801 11.5601C18.4146 11.5601 19.0101 12.1555 19.0101 12.8901Z" fill="#BB806E"/>
<path d="M13.5001 18.4101C13.5001 19.1446 12.9046 19.7401 12.1701 19.7401C11.4355 19.7401 10.8401 19.1446 10.8401 18.4101C10.8401 17.6755 11.4355 17.0801 12.1701 17.0801C12.9046 17.0801 13.5001 17.6755 13.5001 18.4101Z" fill="#BB806E"/>
<path d="M10.47 11.7C8.87005 13.3 8.96005 15.92 10.67 17.4L14.1 20.38C15.2 21.29 16.71 21.21 17.68 20.25L19.53 18.4C20.49 17.44 20.57 15.93 19.66 14.82L16.68 11.39C15.2 9.68002 12.58 9.59002 10.98 11.19L10.47 11.7Z" fill="#C68D7B"/>
<path d="M14.55 15.71L15.21 16.97C15.35 17.23 15.69 17.28 15.9 17.07L16.34 16.63C16.55 16.42 16.49 16.08 16.24 15.94L14.98 15.28C14.7 15.13 14.4 15.43 14.55 15.71Z" fill="#AB6A55"/>
<path d="M16.42 10.6401L17.57 11.7001C17.71 11.9101 17.69 12.1801 17.53 12.3701C17.53 12.3701 17.06 11.8301 16.76 11.4901C16.6 11.3101 16.38 11.2201 16.14 11.2301L15.93 11.2401C15.66 11.2501 15.39 11.1501 15.2 10.9601C15.3121 10.9188 15.4112 10.887 15.5036 10.8574C15.7244 10.7867 15.9073 10.7281 16.14 10.5801C16.1659 10.6164 16.2297 10.615 16.2905 10.6137C16.3469 10.6124 16.4007 10.6112 16.42 10.6401Z" fill="#593B39"/>
<path d="M10.5101 16.66L10.5001 16.86C10.4901 17.09 10.5801 17.32 10.7601 17.48C11.1001 17.78 11.6401 18.25 11.6401 18.25C11.4601 18.42 11.1801 18.44 10.9701 18.3L9.91006 17.15C9.88322 17.1276 9.87839 17.0792 9.8732 17.0272C9.86678 16.963 9.8598 16.8931 9.81006 16.86L9.81045 16.8568C9.86027 16.4482 9.90043 16.119 10.0401 15.73L10.2301 15.92C10.4201 16.12 10.5301 16.39 10.5101 16.66Z" fill="#593B39"/>
<path d="M17.5699 11.7L16.9799 11.15L16.2399 12.25C15.8899 12.21 15.5299 12.32 15.2699 12.58L14.6299 13.22C14.2699 13.58 14.1999 14.12 14.3999 14.55L13.8499 15.1C13.4099 14.9 12.8799 14.97 12.5199 15.33L11.8799 15.97C11.6099 16.24 11.5099 16.6 11.5499 16.95L10.4399 17.71L10.9499 18.26L11.9099 17.67C12.3699 18.1 13.0999 18.09 13.5399 17.64L14.1799 17C14.5399 16.64 14.6099 16.1 14.4099 15.67L14.9599 15.12C15.3999 15.32 15.9299 15.25 16.2899 14.89L16.9299 14.25C17.3799 13.8 17.3899 13.07 16.9499 12.61L17.5699 11.7Z" fill="#433B6B"/>
<path d="M16.0901 14.5401L16.5401 14.0901C16.8501 13.7901 16.8501 13.2901 16.5401 12.9801C16.2401 12.6701 15.7401 12.6701 15.4301 12.9801L14.9801 13.4301C14.6701 13.7301 14.6701 14.2301 14.9801 14.5401C15.2801 14.8501 15.7801 14.8501 16.0901 14.5401Z" fill="#00A6ED"/>
<path d="M13.3799 17.25L13.8299 16.8C14.1399 16.5 14.1399 15.99 13.8299 15.69C13.5299 15.38 13.0299 15.38 12.7199 15.69L12.2699 16.14C11.9599 16.44 11.9599 16.94 12.2699 17.25C12.5699 17.56 13.0699 17.56 13.3799 17.25Z" fill="#00A6ED"/>
<path d="M9.90998 17.15C8.10998 15.71 7.97998 13.23 9.53998 11.67L10.93 10.28C12.49 8.72002 15.07 8.89002 16.41 10.65C16.41 10.65 16.16 10.49 12.94 13.71C9.68998 16.97 9.90998 17.15 9.90998 17.15Z" fill="#0092E7"/>
<path d="M16.93 18.46C17.3773 18.46 17.74 18.0974 17.74 17.65C17.74 17.2027 17.3773 16.84 16.93 16.84C16.4826 16.84 16.12 17.2027 16.12 17.65C16.12 18.0974 16.4826 18.46 16.93 18.46Z" fill="#990838"/>
</svg>

<svg xmlns="http://www.w3.org/2000/svg" width="32" height="32" fill="none"><path fill="#26C9FC" d="M2 13.99a2.819 2.819 0 0 1 4 0 2.819 2.819 0 0 0 4 0 2.819 2.819 0 0 1 4 0 2.819 2.819 0 0 0 4 0 2.819 2.819 0 0 1 4 0 2.819 2.819 0 0 0 4 0 2.819 2.819 0 0 1 4 0v8.95H2v-8.95Z"/><path fill="#B87A66" d="M13.53 24.08H29.9c0-2.6-1.22-4.92-3.11-6.41L22.6 8.45A7.581 7.581 0 0 0 15.7 4H8.78c-.8.05-1.45.34-2.02.91L5.12 6.53c-.29.29-.31.76-.05 1.07l-.14.13c-.31.31-.33.81-.03 1.13.3.32.81.32 1.12.01h.01c.04.07.08.14.14.2a.8.8 0 0 0 1.12.01l.55-.54c.35-.35.83-.55 1.33-.54h6.05c1.7 0 3.24.99 3.94 2.54l2.44 5.36a8.174 8.174 0 0 0-8.07 8.18Z"/><path fill="#0084CE" d="M2 20.98a2.819 2.819 0 0 1 4 0 2.819 2.819 0 0 0 4 0 2.819 2.819 0 0 1 4 0 2.819 2.819 0 0 0 4 0 2.819 2.819 0 0 1 4 0 2.819 2.819 0 0 0 4 0 2.819 2.819 0 0 1 4 0v8.95H2v-8.95Z"/><path fill="#BB806E" d="M19.01 12.89a1.33 1.33 0 1 1-2.66 0 1.33 1.33 0 0 1 2.66 0ZM13.5 18.41a1.33 1.33 0 1 1-2.66 0 1.33 1.33 0 0 1 2.66 0Z"/><path fill="#C68D7B" d="M10.47 11.7c-1.6 1.6-1.51 4.22.2 5.7l3.43 2.98c1.1.91 2.61.83 3.58-.13l1.85-1.85c.96-.96 1.04-2.47.13-3.58l-2.98-3.43a3.895 3.895 0 0 0-5.7-.2l-.51.51Z"/><path fill="#AB6A55" d="m14.55 15.71.66 1.26c.14.26.48.31.69.1l.44-.44c.21-.21.15-.55-.1-.69l-1.26-.66a.317.317 0 0 0-.43.43Z"/><path fill="#593B39" d="m16.42 10.64 1.15 1.06c.14.21.12.48-.04.67 0 0-.47-.54-.77-.88a.77.77 0 0 0-.62-.26l-.21.01a.986.986 0 0 1-.73-.28c.112-.041.211-.073.304-.103.22-.07.403-.129.636-.277.026.036.09.035.15.034.057-.002.11-.003.13.026ZM10.51 16.66l-.01.2c-.01.23.08.46.26.62.34.3.88.77.88.77-.18.17-.46.19-.67.05l-1.06-1.15c-.027-.022-.032-.07-.037-.123-.006-.064-.013-.134-.063-.167v-.003c.05-.409.09-.738.23-1.127l.19.19c.19.2.3.47.28.74Z"/><path fill="#433B6B" d="m17.57 11.7-.59-.55-.74 1.1c-.35-.04-.71.07-.97.33l-.64.64c-.36.36-.43.9-.23 1.33l-.55.55c-.44-.2-.97-.13-1.33.23l-.64.64c-.27.27-.37.63-.33.98l-1.11.76.51.55.96-.59c.46.43 1.19.42 1.63-.03l.64-.64c.36-.36.43-.9.23-1.33l.55-.55c.44.2.97.13 1.33-.23l.64-.64c.45-.45.46-1.18.02-1.64l.62-.91Z"/><path fill="#00A6ED" d="m16.09 14.54.45-.45c.31-.3.31-.8 0-1.11-.3-.31-.8-.31-1.11 0l-.45.45c-.31.3-.31.8 0 1.11.3.31.8.31 1.11 0ZM13.38 17.25l.45-.45c.31-.3.31-.81 0-1.11-.3-.31-.8-.31-1.11 0l-.45.45c-.31.3-.31.8 0 1.11.3.31.8.31 1.11 0Z"/><path fill="#0092E7" d="M9.91 17.15c-1.8-1.44-1.93-3.92-.37-5.48l1.39-1.39a3.646 3.646 0 0 1 5.48.37s-.25-.16-3.47 3.06c-3.25 3.26-3.03 3.44-3.03 3.44Z"/><path fill="#990838" d="M16.93 18.46a.81.81 0 1 0 0-1.62.81.81 0 0 0 0 1.62Z"/></svg>
